**harm	**harte	**timestamp	**phrase	**leadinstrument	**kern
*M4/4	*M4/4	*	*	*	*
*a:	*a:	*	*	*	*a:
1r;	N	0	.	r	1r;
=1	=1	=1	=1	=1	=1
*>A_intro	*>A_intro	*>A_intro	*>A_intro	*>A_intro	*>A_intro
4i	A:min	1.694	newline	organ	4A 4cc 4ee
4ivc	D:min/5	2.426	.	organ	4d 4f 4A
4i	A:min	3.157	.	organ	4A 4cc 4ee
4ivc	D:min/5	3.888	.	organ	4d 4f 4A
=2	=2	=2	=2	=2	=2
4i	A:min	4.619	.	organ	4A 4cc 4ee
4ivc	D:min/5	5.35	.	organ	4d 4f 4A
4i	A:min	6.081	.	organ	4A 4cc 4ee
4ivc	D:min/5	6.812	.	organ	4d 4f 4A
=3	=3	=3	=3	=3	=3
4i	A:min	7.543	.	organ	4A 4cc 4ee
4ivc	D:min/5	8.275	.	organ	4d 4f 4A
4i	A:min	9.006	.	organ	4A 4cc 4ee
4ivc	D:min/5	9.737	.	organ	4d 4f 4A
=4	=4	=4	=4	=4	=4
4i	A:min	10.468	.	organ	4A 4cc 4ee
4ivc	D:min/5	11.199	.	organ	4d 4f 4A
4i	A:min	11.93	.	organ	4A 4cc 4ee
4ivc	D:min/5	12.661	.	organ	4d 4f 4A
=5	=5	=5	=5	=5	=5
*>B_verse	*>B_verse	*>B_verse	*>B_verse	*>B_verse	*>B_verse
4i	A:min	13.393	newline	voice	4A 4cc 4ee
4ivc	D:min/5	14.121	.	voice	4d 4f 4A
4i	A:min	14.85	.	voice	4A 4cc 4ee
4ivc	D:min/5	15.578	.	voice	4d 4f 4A
=6	=6	=6	=6	=6	=6
4i	A:min	16.307	.	voice	4A 4cc 4ee
4ivc	D:min/5	17.035	.	voice	4d 4f 4A
4i	A:min	17.764	.	voice	4A 4cc 4ee
4ivc	D:min/5	18.492	.	voice	4d 4f 4A
=7	=7	=7	=7	=7	=7
4-VII	G:maj	19.221	.	voice	4G 4b 4dd
4-IIIc	C:maj/5	19.949	.	voice	4c- 4e- 4G-
4-VII	G:maj	20.678	.	voice	4G 4b 4dd
4-IIIc	C:maj/5	21.407	.	voice	4c- 4e- 4G-
=8	=8	=8	=8	=8	=8
4i	A:min	22.135	.	voice	4A 4cc 4ee
4ivc	D:min/5	22.864	.	voice	4d 4f 4A
4i	A:min	23.592	.	voice	4A 4cc 4ee
4ivc	D:min/5	24.321	.	voice	4d 4f 4A
=9	=9	=9	=9	=9	=9
4i	A:min	25.049	newline	voice	4A 4cc 4ee
4ivc	D:min/5	25.777	.	voice	4d 4f 4A
4i	A:min	26.504	.	voice	4A 4cc 4ee
4ivc	D:min/5	27.231	.	voice	4d 4f 4A
=10	=10	=10	=10	=10	=10
4i	A:min	27.959	.	voice	4A 4cc 4ee
4ivc	D:min/5	28.686	.	voice	4d 4f 4A
4i	A:min	29.413	.	voice	4A 4cc 4ee
4ivc	D:min/5	30.141	.	voice	4d 4f 4A
=11	=11	=11	=11	=11	=11
4-VII	G:maj	30.868	.	voice	4G 4b 4dd
4-IIIc	C:maj/5	31.595	.	voice	4c- 4e- 4G-
4-VII	G:maj	32.323	.	voice	4G 4b 4dd
4-IIIc	C:maj/5	33.05	.	voice	4c- 4e- 4G-
=12	=12	=12	=12	=12	=12
4i	A:min	33.777	.	voice	4A 4cc 4ee
4ivc	D:min/5	34.505	.	voice	4d 4f 4A
2i	A:min	35.232	.	voice	2A 2cc 2ee
=13	=13	=13	=13	=13	=13
*>C_chorus	*>C_chorus	*>C_chorus	*>C_chorus	*>C_chorus	*>C_chorus
2-VII	G:maj	36.687	newline	voice	2G 2b 2dd
2-VI	F:maj	38.162	.	voice	2F- 2a- 2cc-
=14	=14	=14	=14	=14	=14
1v	E:min	39.638	.	voice	1E 1g 1b
=15	=15	=15	=15	=15	=15
2-VII	G:maj	42.589	newline	voice	2G 2b 2dd
2-VI	F:maj	44.042	.	voice	2F- 2a- 2cc-
=16	=16	=16	=16	=16	=16
*M2/4	*M2/4	*M2/4	*M2/4	*M2/4	*M2/4
2v	E:min	45.495	.	voice	2E 2g 2b
.	N	46.222	.	voice	.
=17	=17	=17	=17	=17	=17
*M4/4	*M4/4	*M4/4	*M4/4	*M4/4	*M4/4
2IV	D:maj	46.949	newline	voice	2D 2f# 2a
2-VIIc	G:maj/5	48.417	.	voice	2g 2b 2D
=18	=18	=18	=18	=18	=18
2IV7	D:7	49.885	.	voice	2D 2f# 2a 2cc
2-VIIc	G:maj/5	51.352	.	voice	2g 2b 2D
=19	=19	=19	=19	=19	=19
*>A_trans	*>A_trans	*>A_trans	*>A_trans	*>A_trans	*>A_trans
4i	A:min	52.82	newline	organ	4A 4cc 4ee
4ivc	D:min/5	53.546	.	organ	4d 4f 4A
4i	A:min	54.272	.	organ	4A 4cc 4ee
4ivc	D:min/5	54.999	.	organ	4d 4f 4A
=20	=20	=20	=20	=20	=20
4i	A:min	55.725	.	organ	4A 4cc 4ee
4ivc	D:min/5	56.451	.	organ	4d 4f 4A
4i	A:min	57.177	.	organ	4A 4cc 4ee
4ivc	D:min/5	57.903	.	organ	4d 4f 4A
=21	=21	=21	=21	=21	=21
*>B_verse	*>B_verse	*>B_verse	*>B_verse	*>B_verse	*>B_verse
4i	A:min	58.629	newline	voice	4A 4cc 4ee
4ivc	D:min/5	59.352	.	voice	4d 4f 4A
4i	A:min	60.076	.	voice	4A 4cc 4ee
4ivc	D:min/5	60.799	.	voice	4d 4f 4A
=22	=22	=22	=22	=22	=22
4i	A:min	61.523	.	voice	4A 4cc 4ee
4ivc	D:min/5	62.246	.	voice	4d 4f 4A
4i	A:min	62.969	.	voice	4A 4cc 4ee
4ivc	D:min/5	63.693	.	voice	4d 4f 4A
=23	=23	=23	=23	=23	=23
4-VII	G:maj	64.416	.	voice	4G 4b 4dd
4-IIIc	C:maj/5	65.14	.	voice	4c- 4e- 4G-
4-VII	G:maj	65.863	.	voice	4G 4b 4dd
4-IIIc	C:maj/5	66.586	.	voice	4c- 4e- 4G-
=24	=24	=24	=24	=24	=24
4i	A:min	67.31	.	voice	4A 4cc 4ee
4ivc	D:min/5	68.033	.	voice	4d 4f 4A
4i	A:min	68.757	.	voice	4A 4cc 4ee
4ivc	D:min/5	69.48	.	voice	4d 4f 4A
=25	=25	=25	=25	=25	=25
4i	A:min	70.204	newline	voice	4A 4cc 4ee
4ivc	D:min/5	70.928	.	voice	4d 4f 4A
4i	A:min	71.652	.	voice	4A 4cc 4ee
4ivc	D:min/5	72.376	.	voice	4d 4f 4A
=26	=26	=26	=26	=26	=26
4i	A:min	73.1	.	voice	4A 4cc 4ee
4ivc	D:min/5	73.824	.	voice	4d 4f 4A
4i	A:min	74.548	.	voice	4A 4cc 4ee
4ivc	D:min/5	75.272	.	voice	4d 4f 4A
=27	=27	=27	=27	=27	=27
4-VII	G:maj	75.996	.	voice	4G 4b 4dd
4-IIIc	C:maj/5	76.72	.	voice	4c- 4e- 4G-
4-VII	G:maj	77.444	.	voice	4G 4b 4dd
4-IIIc	C:maj/5	78.168	.	voice	4c- 4e- 4G-
=28	=28	=28	=28	=28	=28
4i	A:min	78.892	.	voice	4A 4cc 4ee
4ivc	D:min/5	79.617	.	voice	4d 4f 4A
2i	A:min	80.341	.	voice	2A 2cc 2ee
=29	=29	=29	=29	=29	=29
*>C_chorus	*>C_chorus	*>C_chorus	*>C_chorus	*>C_chorus	*>C_chorus
2-VII	G:maj	81.789	newline	voice	2G 2b 2dd
2-VI	F:maj	83.254	.	voice	2F- 2a- 2cc-
=30	=30	=30	=30	=30	=30
1v	E:min	84.718	.	voice	1E 1g 1b
=31	=31	=31	=31	=31	=31
2-VII	G:maj	87.648	newline	voice	2G 2b 2dd
2-VI	F:maj	89.074	.	voice	2F- 2a- 2cc-
=32	=32	=32	=32	=32	=32
*M2/4	*M2/4	*M2/4	*M2/4	*M2/4	*M2/4
2v	E:min	90.5	.	voice	2E 2g 2b
.	N	91.213	.	voice	.
=33	=33	=33	=33	=33	=33
*M4/4	*M4/4	*M4/4	*M4/4	*M4/4	*M4/4
2IV	D:maj	91.926	newline	voice	2D 2f# 2a
2-VIIc	G:maj/5	93.398	.	voice	2g 2b 2D
=34	=34	=34	=34	=34	=34
2IV7	D:7	94.87	.	voice	2D 2f# 2a 2cc
2-VIIc	G:maj/5	96.341	.	voice	2g 2b 2D
=35	=35	=35	=35	=35	=35
2IV	D:maj	97.813	newline	voice	2D 2f# 2a
2-VIIc	G:maj/5	99.261	.	voice	2g 2b 2D
=36	=36	=36	=36	=36	=36
2IV7	D:7	100.709	.	voice	2D 2f# 2a 2cc
2-VIIc	G:maj/5	102.157	.	voice	2g 2b 2D
=37	=37	=37	=37	=37	=37
1-VII	G:maj	103.604	newline	voice	1G 1b 1dd
=38	=38	=38	=38	=38	=38
1-VIId	G:maj/b7	106.506	.	voice	1g 1b 1dd
=39	=39	=39	=39	=39	=39
*>A_trans	*>A_trans	*>A_trans	*>A_trans	*>A_trans	*>A_trans
4i	A:min	109.408	newline	organ	4A 4cc 4ee
4ivc	D:min/5	110.151	.	organ	4d 4f 4A
4i	A:min	110.895	.	organ	4A 4cc 4ee
4ivc	D:min/5	111.638	.	organ	4d 4f 4A
=40	=40	=40	=40	=40	=40
4i	A:min	112.382	.	organ	4A 4cc 4ee
4ivc	D:min/5	113.125	.	organ	4d 4f 4A
4i	A:min	113.869	.	organ	4A 4cc 4ee
4ivc	D:min/5	114.612	.	organ	4d 4f 4A
=41	=41	=41	=41	=41	=41
*>B_verse	*>B_verse	*>B_verse	*>B_verse	*>B_verse	*>B_verse
4i	A:min	115.356	newline	voice	4A 4cc 4ee
4ivc	D:min/5	116.095	.	voice	4d 4f 4A
4i	A:min	116.834	.	voice	4A 4cc 4ee
4ivc	D:min/5	117.573	.	voice	4d 4f 4A
=42	=42	=42	=42	=42	=42
4i	A:min	118.312	.	voice	4A 4cc 4ee
4ivc	D:min/5	119.05	.	voice	4d 4f 4A
4i	A:min	119.789	.	voice	4A 4cc 4ee
4ivc	D:min/5	120.528	.	voice	4d 4f 4A
=43	=43	=43	=43	=43	=43
4-VII	G:maj	121.267	.	voice	4G 4b 4dd
4-IIIc	C:maj/5	122.006	.	voice	4c- 4e- 4G-
4-VII	G:maj	122.745	.	voice	4G 4b 4dd
4-IIIc	C:maj/5	123.484	.	voice	4c- 4e- 4G-
=44	=44	=44	=44	=44	=44
4i	A:min	124.223	.	voice	4A 4cc 4ee
4ivc	D:min/5	124.962	.	voice	4d 4f 4A
4i	A:min	125.7	.	voice	4A 4cc 4ee
4ivc	D:min/5	126.439	.	voice	4d 4f 4A
=45	=45	=45	=45	=45	=45
4i	A:min	127.178	newline	voice	4A 4cc 4ee
4ivc	D:min/5	127.912	.	voice	4d 4f 4A
4i	A:min	128.646	.	voice	4A 4cc 4ee
4ivc	D:min/5	129.379	.	voice	4d 4f 4A
=46	=46	=46	=46	=46	=46
4i	A:min	130.113	.	voice	4A 4cc 4ee
4ivc	D:min/5	130.847	.	voice	4d 4f 4A
4i	A:min	131.581	.	voice	4A 4cc 4ee
4ivc	D:min/5	132.314	.	voice	4d 4f 4A
=47	=47	=47	=47	=47	=47
4-VII	G:maj	133.048	.	voice	4G 4b 4dd
4-IIIc	C:maj/5	133.782	.	voice	4c- 4e- 4G-
4-VII	G:maj	134.516	.	voice	4G 4b 4dd
4-IIIc	C:maj/5	135.249	.	voice	4c- 4e- 4G-
=48	=48	=48	=48	=48	=48
4i	A:min	135.983	.	voice	4A 4cc 4ee
4ivc	D:min/5	136.717	.	voice	4d 4f 4A
2i	A:min	137.45	.	voice	2A 2cc 2ee
=49	=49	=49	=49	=49	=49
*>C_chorus	*>C_chorus	*>C_chorus	*>C_chorus	*>C_chorus	*>C_chorus
2-VII	G:maj	138.918	newline	voice	2G 2b 2dd
2-VI	F:maj	140.395	.	voice	2F- 2a- 2cc-
=50	=50	=50	=50	=50	=50
1v	E:min	141.871	.	voice	1E 1g 1b
=51	=51	=51	=51	=51	=51
2-VII	G:maj	144.824	newline	voice	2G 2b 2dd
2-VI	F:maj	146.272	.	voice	2F- 2a- 2cc-
=52	=52	=52	=52	=52	=52
*M2/4	*M2/4	*M2/4	*M2/4	*M2/4	*M2/4
2v	E:min	147.72	.	voice	2E 2g 2b
.	N	148.444	.	voice	.
=53	=53	=53	=53	=53	=53
*M4/4	*M4/4	*M4/4	*M4/4	*M4/4	*M4/4
2IV	D:maj	149.168	newline	voice	2D 2f# 2a
2-VIIc	G:maj/5	150.634	.	voice	2g 2b 2D
=54	=54	=54	=54	=54	=54
2IV7	D:7	152.101	.	voice	2D 2f# 2a 2cc
2-VIIc	G:maj/5	153.568	.	voice	2g 2b 2D
=55	=55	=55	=55	=55	=55
2IV	D:maj	155.034	newline	voice	2D 2f# 2a
2-VIIc	G:maj/5	156.482	.	voice	2g 2b 2D
=56	=56	=56	=56	=56	=56
2IV7	D:7	157.93	.	voice	2D 2f# 2a 2cc
2-VIIc	G:maj/5	159.379	.	voice	2g 2b 2D
=57	=57	=57	=57	=57	=57
1-VII	G:maj	160.827	newline	voice	1G 1b 1dd
=58	=58	=58	=58	=58	=58
1-VIId	G:maj/b7	163.314	.	voice	1g 1b 1dd
=59	=59	=59	=59	=59	=59
1-VIId	G:maj/b7	165.8	.	voice	1g 1b 1dd
=60	=60	=60	=60	=60	=60
1-VIId	G:maj/b7	168.287	.	voice	1g 1b 1dd
1r;	N	170.774	.	r	1r;
=61	=61	=61	=61	=61	=61
*>C2_outro	*>C2_outro	*>C2_outro	*>C2_outro	*>C2_outro	*>C2_outro
2-VII	G:maj	175.902	newline	piano	2G 2b 2dd
2-VI	F:maj	177.349	.	piano	2F- 2a- 2cc-
=62	=62	=62	=62	=62	=62
1V	E:maj	178.795	.	piano	1E 1g# 1b
=63	=63	=63	=63	=63	=63
2-VII	G:maj	181.688	.	piano	2G 2b 2dd
2-VI	F:maj	183.134	.	piano	2F- 2a- 2cc-
=64	=64	=64	=64	=64	=64
1V	E:maj	184.58	.	piano	1E 1g# 1b
=65	=65	=65	=65	=65	=65
2-VII	G:maj	187.473	newline	piano	2G 2b 2dd
2-VI	F:maj	188.94	.	piano	2F- 2a- 2cc-
=66	=66	=66	=66	=66	=66
1V	E:maj	190.407	.	piano	1E 1g# 1b
=67	=67	=67	=67	=67	=67
2-VII	G:maj	193.341	newline	voice	2G 2b 2dd
2-VI	F:maj	194.783	.	voice	2F- 2a- 2cc-
=68	=68	=68	=68	=68	=68
1V	E:maj	196.224	.	voice	1E 1g# 1b
=69	=69	=69	=69	=69	=69
2-VII	G:maj	199.107	.	voice	2G 2b 2dd
2-VI	F:maj	200.548	.	voice	2F- 2a- 2cc-
=70	=70	=70	=70	=70	=70
1V	E:maj	201.99	.	voice	1E 1g# 1b
=71	=71	=71	=71	=71	=71
2-VII	G:maj	204.872	newline	voice	2G 2b 2dd
2-VI	F:maj	206.314	.	voice	2F- 2a- 2cc-
=72	=72	=72	=72	=72	=72
1V	E:maj	207.755	.	voice	1E 1g# 1b
=73	=73	=73	=73	=73	=73
2-VII	G:maj	210.637	.	voice	2G 2b 2dd
2-VI	F:maj	212.078	.	voice	2F- 2a- 2cc-
=74	=74	=74	=74	=74	=74
1V	E:maj	213.519	.	voice	1E 1g# 1b
=75	=75	=75	=75	=75	=75
*>_fadeout	*>_fadeout	*>_fadeout	*>_fadeout	*>_fadeout	*>_fadeout
2-VII	G:maj	216.401	newline	voice	2G 2b 2dd
2-VI	F:maj	217.832	.	voice	2F- 2a- 2cc-
=76	=76	=76	=76	=76	=76
1V	E:maj	219.264	.	voice	1E 1g# 1b
=77	=77	=77	=77	=77	=77
2-VII	G:maj	222.127	.	voice	2G 2b 2dd
2-VI	F:maj	223.559	.	voice	2F- 2a- 2cc-
=78	=78	=78	=78	=78	=78
1V	E:maj	224.99	.	voice	1E 1g# 1b
=79	=79	=79	=79	=79	=79
2-VII	G:maj	227.854	newline	voice	2G 2b 2dd
2-VI	F:maj	228.884	.	voice	2F- 2a- 2cc-
=80	=80	=80	=80	=80	=80
1V	E:maj	229.915	.	voice	1E 1g# 1b
=81	=81	=81	=81	=81	=81
2-VII	G:maj	231.977	.	voice	2G 2b 2dd
2-VI	F:maj	233.008	.	voice	2F- 2a- 2cc-
=82	=82	=82	=82	=82	=82
1V	E:maj	234.039	.	voice	1E 1g# 1b
1r;	N	236.1	.	r	1r;
1r;	N	241.084	.	r	1r;
*-	*-	*-	*-	*-	*-
!!!OTL: Chicago
!!!COC: Graham Nash
!!!BillboardChartDate: 1971/07/17
!!!BillboardPeak: 35
!!!BillboardWeeksOnChart: 11
!!!SampleTargetRank: 38
!!!SampleActualRank: 36
!!!SampleID#: 0025
!!!RDF**harmony: **recip + pitch class of root + harmonic quality
!!!RDF**harte: Chris Harte's syntax, used by MIREX
!!!RDF**phrase: newline = linebreak in original McGill transcription
!!!RDF**timestamp: McGill audio timestamp in seconds
!!!RDF**leadinstrument: original McGill primary instrumentation annotation
!!!RDT: 2017/01/12/
!!!ENC: Nathaniel Condit-Schultz
!!!EST: Awating manual error checking and editing.
